X:1349
T:Polska efter farfadern
T:(SvL Dalarna 1349)
R:Polska
S:Vilhelm Hedlund
O:Enviken, Dalarna
B:Svenska Låtar Dalarna
M:3/4
L:1/8
Q:144
K:Ador
K:Am
ea ^ga ef|(de) c2 A2|{/B}A(^G A)B cA|AB/A/ ^GB E2|
ea ^ga ef|(de) c2 A2|{/B}A(^G A)B cA|B^G [AA]4:|
|:e(a ^g)(b a)e|(ba/b/) f2 d2|c(>B A)B c>A|{/B}A^G B4|
e(a ^g)(b a)e|(ba/b/) f2 d2|c(>B c)d ed|BG A4:|

